Papirus-GTK/24x24/apps/kalzium.svg

<svg height="24" viewBox="0 0 48 48.000001" width="24" xmlns="http://www.w3.org/2000/svg"><rect fill="#de554c" height="40" rx="2" transform="matrix(0 -1 -1 0 0 0)" width="40" x="-44" y="-44"/><path d="m6 4c-1.108 0-2 .892-2 2v1c0-1.108.892-2 2-2h36c1.108 0 2 .892 2 2v-1c0-1.108-.892-2-2-2z" fill="#fff" opacity=".2"/><path d="m6 44c-1.108 0-2-.892-2-2v-1c0 1.108.892 2 2 2h36c1.108 0 2-.892 2-2v1c0 1.108-.892 2-2 2z" opacity=".3"/><path d="m36.094 13.143a4 4 0 0 0 -.2832.0039 4 4 0 0 0 -3.2734 1.9961 4 4 0 0 0 -.38672 3.0684l-3.4883 2.0156a6 6 0 0 0 -4.663-2.227 6 6 0 0 0 -4.66 2.227l-3.4883-2.0156c.2877-1.0333.14836-2.1388-.38672-3.0684-.68045-1.179-1.9138-1.9311-3.2734-1.9961h-.002c-.7648-.03593-1.5243.14854-2.1875.53125-1.914 1.1043-2.5699 3.5512-1.4648 5.4648 1.105 1.9133 3.5518 2.5683 5.4648 1.4629.31224-.18125.59907-.40405.85156-.66211l3.5098 2.0254a6 6 0 0 0 -.364 2.032 6 6 0 0 0  .40039 2.1523l-3.5449 2.0449c-.25342-.25828-.54022-.48108-.85352-.66211-1.9131-1.1054-4.3599-.45042-5.4648 1.4629-1.105 1.9136-.44919 4.3606 1.4648 5.4648 1.9136 1.105 4.3606.44919 5.4648-1.4648.53541-.9293.67587-2.035.38867-3.0684l3.5664-2.0605a6 6 0 0 0 4.579 2.132 6 6 0 0 0  4.584-2.129l3.5625 2.0586a4 4 0 0 0  .389 3.068 4 4 0 0 0  5.465 1.465 4 4 0 0 0  1.465-5.465 4 4 0 0 0 -5.465-1.463 4 4 0 0 0 -.854.662l-3.552-2.049a6 6 0 0 0  .406-2.148 6 6 0 0 0 -.361-2.031l3.5098-2.0254a4 4 0 0 0  .851.661 4 4 0 0 0  5.465-1.462 4 4 0 0 0 -1.465-5.465 4 4 0 0 0 -1.906-.535z" opacity=".2" transform="translate(0 1.9991071)"/><path d="m36.094 13.143a4 4 0 0 0 -.283.003 4 4 0 0 0 -3.274 1.997 4 4 0 0 0 -.387 3.068l-3.488 2.016a6 6 0 0 0 -4.662-2.227 6 6 0 0 0 -4.66 2.227l-3.488-2.016c.287-1.033.148-2.139-.387-3.068-.681-1.179-1.914-1.932-3.274-1.997h-.002c-.764-.035-1.524.149-2.187.532-1.9141 1.104-2.5699 3.551-1.4649 5.465 1.105 1.913 3.5519 2.568 5.4649 1.462.312-.181.599-.404.852-.662l3.509 2.026a6 6 0 0 0 -.363 2.031 6 6 0 0 0  .4 2.152l-3.545 2.045c-.253-.258-.54-.481-.853-.662-1.913-1.105-4.3599-.45-5.4649 1.463-1.105 1.914-.4492 4.361 1.4649 5.465 1.914 1.105 4.361.449 5.465-1.465.535-.929.676-2.035.388-3.068l3.567-2.061a6 6 0 0 0 4.578 2.131 6 6 0 0 0  4.584-2.129l3.562 2.059a4 4 0 0 0  .389 3.068 4 4 0 0 0  5.465 1.465 4 4 0 0 0  1.465-5.465 4 4 0 0 0 -5.465-1.463 4 4 0 0 0 -.854.662l-3.552-2.049a6 6 0 0 0  .406-2.148 6 6 0 0 0 -.361-2.031l3.509-2.026a4 4 0 0 0  .852.662 4 4 0 0 0  5.465-1.462 4 4 0 0 0 -1.465-5.465 4 4 0 0 0 -1.906-.535z" fill="#fff" transform="translate(0 1.0002895)"/></svg>

<?xml version="1.0" encoding="UTF-8" standalone="no"?>
<!-- Created with Inkscape (http://www.inkscape.org/) -->

<svg
   xmlns:dc="http://purl.org/dc/elements/1.1/"
   xmlns:cc="http://creativecommons.org/ns#"
   xmlns:rdf="http://www.w3.org/1999/02/22-rdf-syntax-ns#"
   xmlns:svg="http://www.w3.org/2000/svg"
   xmlns="http://www.w3.org/2000/svg"
   xmlns:sodipodi="http://sodipodi.sourceforge.net/DTD/sodipodi-0.dtd"
   xmlns:inkscape="http://www.inkscape.org/namespaces/inkscape"
   id="svg4354"
   height="24"
   viewBox="0 0 48 48.000001"
   width="24"
   version="1.1"
   inkscape:version="0.91 r13725"
   sodipodi:docname="kalzium.svg">
  <defs
     id="defs13" />
  <sodipodi:namedview
     pagecolor="#ffffff"
     bordercolor="#666666"
     borderopacity="1"
     objecttolerance="10"
     gridtolerance="10"
     guidetolerance="10"
     inkscape:pageopacity="0"
     inkscape:pageshadow="2"
     inkscape:window-width="1600"
     inkscape:window-height="845"
     id="namedview11"
     showgrid="false"
     inkscape:zoom="1"
     inkscape:cx="-4.5254237"
     inkscape:cy="12"
     inkscape:window-x="0"
     inkscape:window-y="32"
     inkscape:window-maximized="1"
     inkscape:current-layer="svg4354" />
  <metadata
     id="metadata4359">
    <rdf:RDF>
      <cc:Work
         rdf:about="">
        <dc:format>image/svg+xml</dc:format>
        <dc:type
           rdf:resource="http://purl.org/dc/dcmitype/StillImage" />
        <dc:title />
      </cc:Work>
    </rdf:RDF>
  </metadata>
  <rect
     style="fill:#de554c"
     id="rect4203-1"
     ry="2"
     rx="2"
     transform="matrix(0,-1,-1,0,0,0)"
     height="40"
     width="40"
     y="-44"
     x="-44" />
  <path
     style="opacity:0.2;fill:#ffffff"
     inkscape:connector-curvature="0"
     id="rect4592"
     d="M 6,4 C 4.892,4 4,4.892 4,6 L 4,7 C 4,5.892 4.892,5 6,5 l 36,0 c 1.108,0 2,0.892 2,2 L 44,6 C 44,4.892 43.108,4 42,4 L 6,4 Z" />
  <path
     style="opacity:0.3"
     inkscape:connector-curvature="0"
     id="path4597"
     d="M 6,44 C 4.892,44 4,43.108 4,42 l 0,-1 c 0,1.108 0.892,2 2,2 l 36,0 c 1.108,0 2,-0.892 2,-2 l 0,1 c 0,1.108 -0.892,2 -2,2 L 6,44 Z" />
  <g
     style="opacity:0.2"
     id="g4165"
     transform="translate(7.0007,2.0698751)">
    <path
       inkscape:connector-curvature="0"
       id="path4167"
       d="m 36.094,13.143 a 4,4 0 0 0 -0.2832,0.0039 4,4 0 0 0 -3.2734,1.9961 4,4 0 0 0 -0.38672,3.0684 l -3.4883,2.0156 a 6,6 0 0 0 -4.663,-2.227 6,6 0 0 0 -4.66,2.227 l -3.4883,-2.0156 c 0.2877,-1.0333 0.14836,-2.1388 -0.38672,-3.0684 -0.68045,-1.179 -1.9138,-1.9311 -3.2734,-1.9961 l -0.002,0 c -0.7648,-0.03593 -1.5243,0.14854 -2.1875,0.53125 -1.914,1.1043 -2.5699,3.5512 -1.4648,5.4648 1.105,1.9133 3.5518,2.5683 5.4648,1.4629 0.31224,-0.18125 0.59907,-0.40405 0.85156,-0.66211 l 3.5098,2.0254 a 6,6 0 0 0 -0.364,2.032 6,6 0 0 0 0.40039,2.1523 l -3.5449,2.0449 c -0.25342,-0.25828 -0.54022,-0.48108 -0.85352,-0.66211 -1.9131,-1.1054 -4.3599,-0.45042 -5.4648,1.4629 -1.105,1.9136 -0.44919,4.3606 1.4648,5.4648 1.9136,1.105 4.3606,0.44919 5.4648,-1.4648 0.53541,-0.9293 0.67587,-2.035 0.38867,-3.0684 l 3.5664,-2.0605 a 6,6 0 0 0 4.579,2.132 6,6 0 0 0 4.584,-2.129 l 3.5625,2.0586 a 4,4 0 0 0 0.389,3.068 4,4 0 0 0 5.465,1.465 4,4 0 0 0 1.465,-5.465 4,4 0 0 0 -5.465,-1.463 4,4 0 0 0 -0.854,0.662 l -3.552,-2.049 a 6,6 0 0 0 0.406,-2.148 6,6 0 0 0 -0.361,-2.031 l 3.5098,-2.0254 a 4,4 0 0 0 0.851,0.661 4,4 0 0 0 5.465,-1.462 4,4 0 0 0 -1.465,-5.465 4,4 0 0 0 -1.906,-0.535 z"
       transform="translate(-7.0007,-0.070768)" />
  </g>
  <g
     id="g4557"
     transform="translate(7.0007,1.0710575)">
    <path
       style="fill:#ffffff"
       inkscape:connector-curvature="0"
       id="path4668"
       d="m 36.094,13.143 a 4,4 0 0 0 -0.283,0.003 4,4 0 0 0 -3.274,1.997 4,4 0 0 0 -0.387,3.068 l -3.488,2.016 A 6,6 0 0 0 24,18 6,6 0 0 0 19.34,20.227 L 15.852,18.211 C 16.139,17.178 16,16.072 15.465,15.143 14.784,13.964 13.551,13.211 12.191,13.146 l -0.002,0 c -0.764,-0.035 -1.524,0.149 -2.187,0.532 -1.9141,1.104 -2.5699,3.551 -1.4649,5.465 1.105,1.913 3.5519,2.568 5.4649,1.462 0.312,-0.181 0.599,-0.404 0.852,-0.662 l 3.509,2.026 A 6,6 0 0 0 18,24 a 6,6 0 0 0 0.4,2.152 l -3.545,2.045 c -0.253,-0.258 -0.54,-0.481 -0.853,-0.662 -1.913,-1.105 -4.3599,-0.45 -5.4649,1.463 -1.105,1.914 -0.4492,4.361 1.4649,5.465 1.914,1.105 4.361,0.449 5.465,-1.465 0.535,-0.929 0.676,-2.035 0.388,-3.068 l 3.567,-2.061 A 6,6 0 0 0 24,30 6,6 0 0 0 28.584,27.871 l 3.562,2.059 A 4,4 0 0 0 32.535,32.998 4,4 0 0 0 38,34.463 4,4 0 0 0 39.465,28.998 4,4 0 0 0 34,27.535 4,4 0 0 0 33.146,28.197 L 29.594,26.148 A 6,6 0 0 0 30,24 6,6 0 0 0 29.639,21.969 l 3.509,-2.026 A 4,4 0 0 0 34,20.605 4,4 0 0 0 39.465,19.143 4,4 0 0 0 38,13.678 4,4 0 0 0 36.094,13.143 Z"
       transform="translate(-7.0007,-0.070768)" />
  </g>
</svg>
